assets/img/definir.svg

<svg width="213" height="198" viewBox="0 0 213 198" fill="none" xmlns="http://www.w3.org/2000/svg">
<rect width="213" height="198" fill="#955AB1"/>
<path d="M65.66 47V33H72.02C73.54 33 74.88 33.2933 76.04 33.88C77.2 34.4533 78.1067 35.26 78.76 36.3C79.4133 37.34 79.74 38.5733 79.74 40C79.74 41.4133 79.4133 42.6467 78.76 43.7C78.1067 44.74 77.2 45.5533 76.04 46.14C74.88 46.7133 73.54 47 72.02 47H65.66ZM68.9 44.34H71.86C72.7933 44.34 73.6 44.1667 74.28 43.82C74.9733 43.46 75.5067 42.9533 75.88 42.3C76.2667 41.6467 76.46 40.88 76.46 40C76.46 39.1067 76.2667 38.34 75.88 37.7C75.5067 37.0467 74.9733 36.5467 74.28 36.2C73.6 35.84 72.7933 35.66 71.86 35.66H68.9V44.34ZM87.3034 47.16C86.0768 47.16 84.9968 46.92 84.0634 46.44C83.1434 45.96 82.4301 45.3067 81.9234 44.48C81.4168 43.64 81.1634 42.6867 81.1634 41.62C81.1634 40.54 81.4101 39.5867 81.9034 38.76C82.4101 37.92 83.0968 37.2667 83.9634 36.8C84.8301 36.32 85.8101 36.08 86.9034 36.08C87.9568 36.08 88.9034 36.3067 89.7434 36.76C90.5968 37.2 91.2701 37.84 91.7634 38.68C92.2568 39.5067 92.5034 40.5 92.5034 41.66C92.5034 41.78 92.4968 41.92 92.4834 42.08C92.4701 42.2267 92.4568 42.3667 92.4434 42.5H83.7034V40.68H90.8034L89.6034 41.22C89.6034 40.66 89.4901 40.1733 89.2634 39.76C89.0368 39.3467 88.7234 39.0267 88.3234 38.8C87.9234 38.56 87.4568 38.44 86.9234 38.44C86.3901 38.44 85.9168 38.56 85.5034 38.8C85.1034 39.0267 84.7901 39.3533 84.5634 39.78C84.3368 40.1933 84.2234 40.6867 84.2234 41.26V41.74C84.2234 42.3267 84.3501 42.8467 84.6034 43.3C84.8701 43.74 85.2368 44.08 85.7034 44.32C86.1834 44.5467 86.7434 44.66 87.3834 44.66C87.9568 44.66 88.4568 44.5733 88.8834 44.4C89.3234 44.2267 89.7234 43.9667 90.0834 43.62L91.7434 45.42C91.2501 45.98 90.6301 46.4133 89.8834 46.72C89.1368 47.0133 88.2768 47.16 87.3034 47.16ZM94.9606 47V36C94.9606 34.7867 95.3206 33.82 96.0406 33.1C96.7606 32.3667 97.7873 32 99.1206 32C99.574 32 100.007 32.0467 100.421 32.14C100.847 32.2333 101.207 32.38 101.501 32.58L100.681 34.84C100.507 34.72 100.314 34.6267 100.101 34.56C99.8873 34.4933 99.6606 34.46 99.4206 34.46C98.9673 34.46 98.614 34.5933 98.3606 34.86C98.1206 35.1133 98.0006 35.5 98.0006 36.02V37.02L98.0806 38.36V47H94.9606ZM93.3006 38.88V36.48H100.761V38.88H93.3006ZM102.521 47V36.24H105.641V47H102.521ZM104.081 34.74C103.507 34.74 103.041 34.5733 102.681 34.24C102.321 33.9067 102.141 33.4933 102.141 33C102.141 32.5067 102.321 32.0933 102.681 31.76C103.041 31.4267 103.507 31.26 104.081 31.26C104.654 31.26 105.121 31.42 105.481 31.74C105.841 32.0467 106.021 32.4467 106.021 32.94C106.021 33.46 105.841 33.8933 105.481 34.24C105.134 34.5733 104.667 34.74 104.081 34.74ZM115.066 36.08C115.919 36.08 116.679 36.2533 117.346 36.6C118.026 36.9333 118.559 37.4533 118.946 38.16C119.333 38.8533 119.526 39.7467 119.526 40.84V47H116.406V41.32C116.406 40.4533 116.213 39.8133 115.826 39.4C115.453 38.9867 114.919 38.78 114.226 38.78C113.733 38.78 113.286 38.8867 112.886 39.1C112.499 39.3 112.193 39.6133 111.966 40.04C111.753 40.4667 111.646 41.0133 111.646 41.68V47H108.526V36.24H111.506V39.22L110.946 38.32C111.333 37.6 111.886 37.0467 112.606 36.66C113.326 36.2733 114.146 36.08 115.066 36.08ZM122.354 47V36.24H125.474V47H122.354ZM123.914 34.74C123.341 34.74 122.874 34.5733 122.514 34.24C122.154 33.9067 121.974 33.4933 121.974 33C121.974 32.5067 122.154 32.0933 122.514 31.76C122.874 31.4267 123.341 31.26 123.914 31.26C124.487 31.26 124.954 31.42 125.314 31.74C125.674 32.0467 125.854 32.4467 125.854 32.94C125.854 33.46 125.674 33.8933 125.314 34.24C124.967 34.5733 124.501 34.74 123.914 34.74ZM128.37 47V36.24H131.35V39.28L130.93 38.4C131.25 37.64 131.763 37.0667 132.47 36.68C133.176 36.28 134.036 36.08 135.05 36.08V38.96C134.916 38.9467 134.796 38.94 134.69 38.94C134.583 38.9267 134.47 38.92 134.35 38.92C133.496 38.92 132.803 39.1667 132.27 39.66C131.75 40.14 131.49 40.8933 131.49 41.92V47H128.37Z" fill="white"/>
<path d="M145.597 111.408C145.394 112.289 144.596 112.766 143.189 112.849L140.77 118.46L139.519 118.592C135.967 126.871 132.88 139.38 128.721 146.778C127.493 148.971 126.826 149.661 124.168 148.577C121.451 147.469 114.956 141.691 111.309 139.607C109.497 140.738 107.185 138.534 106.327 136.831C104.909 136.307 103.455 135.771 101.906 135.723C100.964 136.688 100.106 158.93 99.6292 162.48C99.1048 166.376 96.6378 168.556 94.1589 164.756L95.8155 139.047C94.7071 138.916 93.9801 139.988 93.3246 140.703C87.2823 147.207 81.359 161.289 71.2169 161.753C69.4769 161.825 67.3436 161.908 67.0456 159.752C66.5451 156.13 70.2754 156.964 72.7543 156.071C84.2074 151.937 87.0916 128.313 105.219 130.755C105.541 130.529 105.898 130.374 106.291 130.314C108.008 129.957 110.141 130.969 110.749 132.971C115.85 135.437 120.033 139.571 125.122 141.811L136.193 113.886C134.954 113.183 133.512 114.279 132.106 114.16C128.792 113.874 128.709 109.811 131.188 108.894C132.272 108.501 143.487 105.951 144.143 106.023C148.302 106.464 145.93 109.859 145.597 111.408Z" fill="white"/>
<path d="M118.496 90.3929C120.474 90.8695 122.322 94.4554 120.713 95.9207C123.049 106.714 119.747 117.579 110.201 123.572C110.13 125.478 107.281 127.062 105.78 125.787C85.7456 133.221 66.093 113.016 73.1246 93.4189C73.7562 91.6438 75.0553 88.451 77.5461 89.5471C80.907 91.0243 77.3554 96.5164 77.0813 99.5781C75.377 119.164 100.119 130.529 112.406 114.446C124.693 98.3629 102.192 67.3406 85.8529 80.7074C84.0056 82.2204 79.9059 89.2612 77.5223 85.5919C74.9003 81.5652 84.4228 74.6197 87.867 73.3211C101.382 68.1984 113.348 78.837 118.496 90.3929Z" fill="white"/>
<path d="M146.158 157.572C145.514 161.099 137.327 158.978 134.836 158.93C130.605 158.847 126.303 158.847 122.072 158.93C118.925 158.99 107.77 161.635 106.888 157.001C105.792 151.234 107.973 142.955 106.328 136.831C108.128 137.51 109.665 138.666 111.31 139.607V155.082L141.188 154.844C142.225 154.106 141.569 151.068 141.748 149.805L139.52 118.592C139.925 117.627 142.177 112.361 142.416 112.099C142.976 111.444 144.728 111.408 145.598 111.408C143.095 123.012 145.8 135.831 146.182 147.601C146.253 150.15 146.563 155.345 146.158 157.572Z" fill="#DAE1E1"/>
<path d="M120.713 95.9198C120.296 93.9898 119.295 92.179 118.496 90.392C125.587 90.9996 133.977 89.5819 140.902 90.392C145.061 90.8685 144.835 94.8238 141.986 95.3599C137.648 96.17 128.71 95.3122 123.74 95.3599C122.81 95.3599 121.285 95.0025 120.701 95.9198H120.713Z" fill="#DAE1E1"/>
<path d="M110.751 132.97C109.225 132.232 106.842 130.981 105.221 130.754C107.652 131.171 105.292 127.55 105.769 125.774C107.008 125.322 109.07 124.273 110.19 123.559L110.739 132.958L110.751 132.97Z" fill="#DAE1E1"/>
</svg>

<svg xmlns="http://www.w3.org/2000/svg" width="213" height="198" fill="none"><path fill="#955AB1" d="M0 0h213v198H0z"/><path fill="#fff" d="M65.66 47V33h6.36q2.28 0 4.02.88 1.74.86 2.72 2.42t.98 3.7q0 2.12-.98 3.7-.98 1.56-2.72 2.44-1.74.86-4.02.86zm3.24-2.66h2.96q1.4 0 2.42-.52a3.83 3.83 0 0 0 1.6-1.52q.58-.98.58-2.3 0-1.34-.58-2.3a3.7 3.7 0 0 0-1.6-1.5q-1.02-.54-2.42-.54H68.9zm18.403 2.82q-1.839 0-3.24-.72-1.38-.72-2.14-1.96-.76-1.26-.76-2.86 0-1.62.74-2.86a5.3 5.3 0 0 1 2.06-1.96q1.3-.72 2.94-.72 1.58 0 2.84.68a4.9 4.9 0 0 1 2.02 1.92q.74 1.24.74 2.98 0 .18-.02.42-.02.22-.04.42h-8.74v-1.82h7.1l-1.2.54q0-.84-.34-1.46a2.4 2.4 0 0 0-.94-.96q-.6-.36-1.4-.36t-1.42.36q-.6.34-.94.98-.34.62-.34 1.48v.48q0 .88.38 1.56.4.66 1.1 1.02.72.34 1.68.34.861 0 1.5-.26.66-.26 1.2-.78l1.66 1.8a4.9 4.9 0 0 1-1.86 1.3q-1.119.44-2.58.44m7.658-.16V36q0-1.82 1.08-2.9 1.08-1.1 3.08-1.1.68 0 1.3.14.639.14 1.08.44l-.82 2.26a2.1 2.1 0 0 0-.58-.28 2.3 2.3 0 0 0-.68-.1q-.68 0-1.06.4-.36.38-.36 1.16v1l.08 1.34V47zm-1.66-8.12v-2.4h7.46v2.4zm9.22 8.12V36.24h3.12V47zm1.56-12.26q-.86 0-1.4-.5a1.62 1.62 0 0 1-.54-1.24q0-.74.54-1.24t1.4-.5 1.4.48q.54.46.54 1.2 0 .78-.54 1.3-.52.5-1.4.5m10.985 1.34q1.28 0 2.28.52 1.02.5 1.6 1.56.58 1.04.58 2.68V47h-3.12v-5.68q0-1.3-.58-1.92-.56-.62-1.6-.62-.74 0-1.34.32-.58.3-.92.94-.32.64-.32 1.64V47h-3.12V36.24h2.98v2.98l-.56-.9q.58-1.08 1.66-1.66t2.46-.58M122.354 47V36.24h3.12V47zm1.56-12.26q-.86 0-1.4-.5a1.62 1.62 0 0 1-.54-1.24q0-.74.54-1.24t1.4-.5 1.4.48q.54.46.54 1.2 0 .78-.54 1.3-.52.5-1.4.5M128.37 47V36.24h2.98v3.04l-.42-.88q.48-1.14 1.54-1.72 1.059-.6 2.58-.6v2.88a4 4 0 0 0-.36-.02 3 3 0 0 0-.34-.02q-1.28 0-2.08.74-.78.72-.78 2.26V47zM145.597 111.408c-.203.881-1.001 1.358-2.408 1.441l-2.419 5.611-1.251.132c-3.552 8.279-6.639 20.788-10.798 28.186-1.228 2.193-1.895 2.883-4.553 1.799-2.717-1.108-9.212-6.886-12.859-8.97-1.812 1.131-4.124-1.073-4.982-2.776-1.418-.524-2.872-1.06-4.421-1.108-.942.965-1.8 23.207-2.277 26.757-.524 3.896-2.991 6.076-5.47 2.276l1.656-25.709c-1.108-.131-1.835.941-2.49 1.656-6.043 6.504-11.966 20.586-22.108 21.05-1.74.072-3.873.155-4.171-2.001-.5-3.622 3.23-2.788 5.708-3.681 11.453-4.134 14.338-27.758 32.465-25.316a2.5 2.5 0 0 1 1.072-.441c1.717-.357 3.85.655 4.458 2.657 5.101 2.466 9.284 6.6 14.373 8.84l11.071-27.925c-1.239-.703-2.681.393-4.087.274-3.314-.286-3.397-4.349-.918-5.266 1.084-.393 12.299-2.943 12.955-2.871 4.159.441 1.787 3.836 1.454 5.385"/><path fill="#fff" d="M118.496 90.393c1.978.477 3.826 4.062 2.217 5.528 2.336 10.793-.966 21.658-10.512 27.651-.071 1.906-2.92 3.49-4.421 2.215-20.034 7.434-39.687-12.771-32.655-32.368.631-1.775 1.93-4.968 4.421-3.872 3.361 1.477-.19 6.97-.465 10.031-1.704 19.586 23.038 30.951 35.325 14.868s-10.214-47.105-26.553-33.739c-1.847 1.513-5.947 8.554-8.33 4.885-2.623-4.027 6.9-10.972 10.344-12.27 13.515-5.124 25.481 5.515 30.629 17.07"/><path fill="#DAE1E1" d="M146.158 157.572c-.644 3.527-8.831 1.406-11.322 1.358a327 327 0 0 0-12.764 0c-3.147.06-14.302 2.705-15.184-1.929-1.096-5.767 1.085-14.046-.56-20.17 1.8.679 3.337 1.835 4.982 2.776v15.475l29.878-.238c1.037-.738.381-3.776.56-5.039l-2.228-31.213c.405-.965 2.657-6.231 2.896-6.493.56-.655 2.312-.691 3.182-.691-2.503 11.604.202 24.423.584 36.193.071 2.549.381 7.744-.024 9.971M120.713 95.92c-.417-1.93-1.418-3.741-2.217-5.528 7.091.608 15.481-.81 22.406 0 4.159.477 3.933 4.432 1.084 4.968-4.338.81-13.276-.048-18.246 0-.93 0-2.455-.358-3.039.56zM110.751 132.97c-1.526-.738-3.909-1.989-5.53-2.216 2.431.417.071-3.204.548-4.98 1.239-.452 3.301-1.501 4.421-2.215l.549 9.399z"/></svg>
